!!!OTL-incipit: Haenschen klein ging allein in die weite Welt hinein
!!!ARE: Europa, Mitteleuropa, Deutschland, Baden, Freiburg /Br., Ebnet
!!!SCT: D1022
!!!TXL: @@DE
!!!YEM: Copyright 1995, estate of Helmut Schaffrath.
**kern	**text
*ICvox	*
*M4/4	*
*k[f#]	*
*G:	*
{4dd	[Häns]-
4b	-chen
2b	klein
=1	=1
4cc	ging
4a	al-
2a}	-lein
=2	=2
{4g	in
4a	die
4b	wei-
4cc	-te
=3	=3
4dd	Welt
4dd	hin-
2dd}	-ein,
=4	=4
{4dd	Stock
4b	und
2b	Hut
=5	=5
4cc	steht
4a	ihm
2a}	gut,
=6	=6
{4g	Hans
4b	ist
4dd	wohl-
4dd	-ge-
=7	=7
2g	-mut.
2r}	.
=8	=8
{4a	A-
4a	-ber
4a	Ma-
4a	-ma
=9	=9
4a	wei-
4b	-net
2cc}	sehr,
=10	=10
{4b	hat
4b	ja
4b	nun
4b	kein
=11	=11
4b	Häns-
4cc	-chen
2dd}	mehr,
=12	=12
{4dd	[da]
4b	be-
2b	-sinnt
=13	=13
4cc	sich
4a	das
2a}	Kind,
=14	=14
{4g	kehrt
4b	zu-
4dd	-rück
4dd	ge-
=15	=15
2g	-schwind.
2r}	.
=16	=16
{4a	doch
4a	nun
4a	ist'
4a	kein
=17	=17
4a	Häns-
4b	-chen
2cc}	mehr,
=18	=18
{4b	nein,
4b	ein
4b	gro-
4b	-ßer
=19	=19
4b	Mann
4cc	ist
2dd}	er,
=20	=20
{4dd	braun-
4b	-ge-
2b	-brannt
=21	=21
4cc	Stirn
4a	u.
2a}	Hand,
=22	=22
{4g	.
4b	.
4dd	.
4dd	.
=23	=23
2g	.
2r}	.
==	==
!!!AGN: Kinder - Lied
!! DVA-Signatur A 218 598
!!!ONB: ESAC (Essen Associative Code) Database: DVA
!!!AMT: simple quadruple
!!!AIN: vox
!!!EED: Helmut Schaffrath
!!!EEV: 1.0
!!!YOR: https://freidok.uni-freiburg.de/data/150373
!!!RTL: Mag. 234 Nr. 8377
!!!ENC: Anna Maria Matuszewska
!!!EEV: 2025/04/02
*-	*-
